assets/icons/qvision/insert_comment.svg

<svg xmlns="http://www.w3.org/2000/svg" height="24" viewBox="0 0 24 24" width="24"><path d="M0 0h24v24H0z" fill="none"/><path d="M20 2H4c-1.1 0-2 .9-2 2v12c0 1.1.9 2 2 2h14l4 4V4c0-1.1-.9-2-2-2zm-2 12H6v-2h12v2zm0-3H6V9h12v2zm0-3H6V6h12v2z"/></svg>

<svg width="24" height="24" viewBox="0 0 24 24" fill="none" xmlns="http://www.w3.org/2000/svg">
<g clip-path="url(#clip0_147_2671)">
<path d="M20 2H4C2.9 2 2 2.9 2 4V16C2 17.1 2.9 18 4 18H18L22 22V4C22 2.9 21.1 2 20 2ZM18 14H6V12H18V14ZM18 11H6V9H18V11ZM18 8H6V6H18V8Z" fill="#323232"/>
</g>
<defs>
<clipPath id="clip0_147_2671">
<rect width="24" height="24" fill="white"/>
</clipPath>
</defs>
</svg>
